24x24/actions/object-rotate-left.svg

<svg viewBox="0 0 24 24" xmlns="http://www.w3.org/2000/svg"><path d="m13.4 4-3.293 3.293-.207.207.207.207 3.293 3.293.707-.707-2.293-2.293h3.186v-1h-3.186l2.293-2.293zm3.1 3a.499.499 0 1 0 0 1 .499.499 0 1 0 0-1zm-8.55 2-4.95 4.95 6.05 6.05 4.95-4.95zm11.55 0a.499.499 0 1 0 0 1 .499.499 0 1 0 0-1zm-11.55 1.414 4.777 4.777-3.536 3.536-4.777-4.778 3.535-3.535zm12.55 1.586a.499.499 0 1 0 0 1 .499.499 0 1 0 0-1zm-1 3a.499.499 0 1 0 0 1 .499.499 0 1 0 0-1zm-3 2a.499.499 0 1 0 0 1 .499.499 0 1 0 0-1z" fill="#8b9cbe"/></svg>

<svg xmlns="http://www.w3.org/2000/svg" viewBox="0 0 24 24"><path style="fill:currentColor;fill-opacity:1;stroke:none;color:#8b9cbe" d="m13.4 4-3.293 3.293L9.9 7.5l.207.207L13.4 11l.707-.707L11.814 8H15V7h-3.186l2.293-2.293L13.4 4zm3.1 3a.499.499 0 1 0 0 1 .499.499 0 1 0 0-1zM7.95 9 3 13.95 9.05 20 14 15.05 7.95 9zM19.5 9a.499.499 0 1 0 0 1 .499.499 0 1 0 0-1zM7.95 10.414l4.777 4.777-3.536 3.536-4.777-4.778 3.535-3.535zM20.5 12a.499.499 0 1 0 0 1 .499.499 0 1 0 0-1zm-1 3a.499.499 0 1 0 0 1 .499.499 0 1 0 0-1zm-3 2a.499.499 0 1 0 0 1 .499.499 0 1 0 0-1z"/></svg>
